svgs/duotone/circle-t.svg

<svg xmlns="http://www.w3.org/2000/svg" viewBox="0 0 512 512"><!-- Font Awesome Pro 6.0.0-alpha2 by @fontawesome - https://fontawesome.com License - https://fontawesome.com/license (Commercial License) --><defs><style>.fa-secondary{opacity:.4}</style></defs><path d="M256 16C123.451 16 16 123.451 16 256S123.451 496 256 496S496 388.549 496 256S388.549 16 256 16ZM360 192H280V360C280 373.25 269.25 384 256 384S232 373.25 232 360V192H152C138.75 192 128 181.25 128 168S138.75 144 152 144H360C373.25 144 384 154.75 384 168S373.25 192 360 192Z" class="fa-secondary"/><path d="M360 144H152C138.75 144 128 154.75 128 168S138.75 192 152 192H232V360C232 373.25 242.75 384 256 384S280 373.25 280 360V192H360C373.25 192 384 181.25 384 168S373.25 144 360 144Z" class="fa-primary"/></svg>

<svg xmlns="http://www.w3.org/2000/svg" viewBox="0 0 512 512"><!--! Font Awesome Pro 6.3.0 by @fontawesome - https://fontawesome.com License - https://fontawesome.com/license (Commercial License) Copyright 2023 Fonticons, Inc. --><defs><style>.fa-secondary{opacity:.4}</style></defs><path class="fa-primary" d="M360 144h-208C138.8 144 128 154.8 128 168S138.8 192 152 192h80v168C232 373.3 242.8 384 256 384s24-10.75 24-24V192h80C373.3 192 384 181.3 384 168S373.3 144 360 144z"/><path class="fa-secondary" d="M256 0C114.6 0 0 114.6 0 256s114.6 256 256 256s256-114.6 256-256S397.4 0 256 0zM360 192h-80v168c0 13.25-10.75 24-24 24s-24-10.75-24-24V192h-80C138.8 192 128 181.3 128 168S138.8 144 152 144h208C373.3 144 384 154.8 384 168S373.3 192 360 192z"/></svg>
